dist/svg/caret-square-right.svg

<!-- Generated by Trend Micro Style Portal -->
<svg version="1.1" xmlns="http://www.w3.org/2000/svg" width="16" height="16" viewBox="0 0 16 16">
  <title>caret-square-right</title>
  <path fill="rgb(34,34,34)" d="M14 3v10h-12v-10h12zM14 2h-12c-0.552 0-1 0.448-1 1v0 10c0 0.552 0.448 1 1 1v0h12c0.552 0 1-0.448 1-1v0-10c0-0.552-0.448-1-1-1v0zM6 4v8l5-4z"></path>
</svg>

<svg width="16" height="16" viewBox="0 0 16 16" fill="rgb(34, 34, 34)" xmlns="http://www.w3.org/2000/svg"><title>caret-square-right</title><path d="M14 3V13H2V3H14ZM14 2H2C1.448 2 1 2.448 1 3V13C1 13.552 1.448 14 2 14H14C14.552 14 15 13.552 15 13V3C15 2.448 14.552 2 14 2ZM6 4V12L11 8L6 4Z" fill="rgb(34, 34, 34)" fill-opacity="1.00"/></svg>
